static/icons/twitter.svg

<svg xmlns="http://www.w3.org/2000/svg" viewBox="0 0 24 24" width="24" height="24"><path d="M15.3499 5.5498C13.7681 5.5498 12.4786 6.81785 12.4504 8.39633L12.4223 9.97138C12.4164 10.3027 12.143 10.5665 11.8117 10.5606C11.7881 10.5602 11.7646 10.5584 11.7413 10.5552L10.1805 10.3423C8.12699 10.0623 6.15883 9.11711 4.27072 7.54387C3.67275 10.8535 4.84 13.147 7.65342 14.9157L9.40041 16.014C9.68095 16.1904 9.7654 16.5608 9.58903 16.8413C9.54861 16.9056 9.49636 16.9616 9.43504 17.0064L7.84338 18.1693C8.78973 18.2288 9.68938 18.1873 10.435 18.0385C15.1526 17.097 18.2897 13.5468 18.2897 7.69084C18.2897 7.21275 17.2774 5.5498 15.3499 5.5498ZM10.4507 8.36066C10.4983 5.69559 12.6735 3.5498 15.3499 3.5498C16.7132 3.5498 17.9465 4.10658 18.8348 5.00515C19.5462 4.9998 20.1514 5.17966 21.5035 4.35943C21.1693 5.9998 21.0034 6.71177 20.2897 7.69084C20.2897 15.3324 15.5926 19.0487 10.8264 19.9998C7.5587 20.6519 2.80646 19.5812 1.44531 18.1584C2.13874 18.1051 4.95928 17.8018 6.58895 16.6089C5.20994 15.6984 -0.278631 12.4679 3.32772 3.78617C5.02119 5.76283 6.73797 7.10831 8.47807 7.82262C9.63548 8.29774 9.91978 8.28825 10.4507 8.36066Z" fill="currentColor"></path></svg>

<svg xmlns="http://www.w3.org/2000/svg" width="24" height="24"><path fill="currentColor" d="M15.35 5.55a2.9 2.9 0 0 0-2.9 2.846l-.028 1.575a.6.6 0 0 1-.68.584l-1.562-.213c-2.053-.28-4.021-1.225-5.91-2.798-.597 3.31.57 5.603 3.383 7.372L9.4 16.014a.6.6 0 0 1 .035.992L7.843 18.17c.947.06 1.846.018 2.592-.13 4.718-.942 7.855-4.492 7.855-10.348 0-.478-1.013-2.141-2.94-2.141m-4.9 2.81a4.9 4.9 0 0 1 8.385-3.355c.711-.005 1.316.175 2.668-.646-.334 1.64-.5 2.353-1.213 3.332 0 7.641-4.697 11.358-9.464 12.309-3.267.652-8.02-.419-9.38-1.842.693-.053 3.513-.356 5.143-1.55-1.38-.91-6.868-4.14-3.261-12.822 1.693 1.977 3.41 3.322 5.15 4.037 1.157.475 1.442.465 1.973.538"/></svg>
